src/Assets/icon.svg

<svg width="32" height="32" viewBox="0 0 32 32" fill="none" xmlns="http://www.w3.org/2000/svg">
<path d="M0 8C0 3.58172 3.58172 0 8 0H24C28.4183 0 32 3.58172 32 8V24C32 28.4183 28.4183 32 24 32H8C3.58172 32 0 28.4183 0 24V8Z" fill="#B3B3B3" fill-opacity="0.4"/>
<g clip-path="url(#clip0_3781_18011)">
<path fill-rule="evenodd" clip-rule="evenodd" d="M15.9964 4.07861C17.7782 4.07811 19.5374 4.47701 21.1447 5.24598C22.752 6.01495 24.1665 7.13443 25.2841 8.5221C26.4018 9.90976 27.1941 11.5303 27.603 13.2645C28.0118 14.9988 28.0266 16.8026 27.6465 18.5433C27.2663 20.2841 26.5008 21.9175 25.4061 23.3234C24.3115 24.7293 22.9157 25.8719 21.3213 26.6673C19.7269 27.4626 17.9745 27.8905 16.1929 27.9193C14.4114 27.9482 12.6461 27.5773 11.0267 26.834L5.08501 27.9089C4.93601 27.9355 4.78261 27.9222 4.64043 27.8703C4.49824 27.8184 4.37232 27.7298 4.27549 27.6135C4.17866 27.4971 4.11436 27.3572 4.08914 27.208C4.06391 27.0587 4.07865 26.9055 4.13187 26.7638L5.83587 22.2278C4.72904 20.4213 4.12362 18.3524 4.08196 16.2342C4.04029 14.116 4.56387 12.025 5.5988 10.1763C6.63374 8.3277 8.14263 6.78827 9.97016 5.71651C11.7977 4.64475 13.8778 4.07939 15.9964 4.07861ZM15.3467 11.6198C15.5797 11.5238 15.831 11.4806 16.0826 11.4934C16.3342 11.5061 16.5798 11.5744 16.8019 11.6934C17.024 11.8123 17.2169 11.979 17.3669 12.1814C17.5169 12.3839 17.6202 12.617 17.6693 12.8641C17.7185 13.1111 17.7123 13.3661 17.6512 13.6105C17.5901 13.8549 17.4757 14.0827 17.3161 14.2776C17.1564 14.4725 16.9556 14.6297 16.7281 14.7377C16.5005 14.8458 16.2518 14.9021 15.9999 14.9026C15.7157 14.9026 15.4432 15.0155 15.2423 15.2164C15.0413 15.4174 14.9284 15.6899 14.9284 15.974V17.8255C14.9284 18.1096 15.0413 18.3822 15.2423 18.5831C15.4432 18.784 15.7157 18.8969 15.9999 18.8969C16.284 18.8969 16.5566 18.784 16.7575 18.5831C16.9584 18.3822 17.0713 18.1096 17.0713 17.8255V16.8912C17.758 16.6921 18.3756 16.3058 18.855 15.7754C19.3344 15.245 19.6566 14.5915 19.7854 13.8883C19.9143 13.185 19.8447 12.4598 19.5844 11.7939C19.3242 11.128 18.8836 10.5478 18.3121 10.1182C17.7406 9.68868 17.0607 9.42683 16.3487 9.36203C15.6367 9.29723 14.9207 9.43204 14.281 9.75135C13.6414 10.0706 13.1033 10.5618 12.7271 11.1698C12.3509 11.7778 12.1515 12.4785 12.1513 13.1935C12.1513 13.4776 12.2642 13.7502 12.4651 13.9511C12.666 14.152 12.9386 14.2649 13.2227 14.2649C13.5069 14.2649 13.7794 14.152 13.9803 13.9511C14.1813 13.7502 14.2942 13.4776 14.2942 13.1935C14.2942 12.8562 14.3942 12.5266 14.5816 12.2462C14.7689 11.9658 15.0352 11.7472 15.3467 11.618V11.6198ZM15.9999 23.5255C15.593 23.525 15.2029 23.3629 14.9155 23.0749C14.6281 22.7868 14.4668 22.3964 14.4673 21.9895C14.4678 21.5826 14.6298 21.1925 14.9179 20.9051C15.2059 20.6177 15.5964 20.4564 16.0033 20.4569H16.0067C16.4136 20.4574 16.8037 20.6194 17.0911 20.9075C17.3785 21.1956 17.5398 21.586 17.5393 21.9929C17.5388 22.3998 17.3768 22.7899 17.0887 23.0773C16.8006 23.3647 16.4102 23.5259 16.0033 23.5255H15.9999Z" fill="#F4F6F9"/>
</g>
<defs>
<clipPath id="clip0_3781_18011">
<rect width="24" height="24" fill="white" transform="translate(4 4)"/>
</clipPath>
</defs>
</svg>

<svg xmlns="http://www.w3.org/2000/svg" width="32" height="32" fill="none"><path fill="#B3B3B3" fill-opacity=".4" d="M0 8a8 8 0 0 1 8-8h16a8 8 0 0 1 8 8v16a8 8 0 0 1-8 8H8a8 8 0 0 1-8-8z"/><g clip-path="url(#a)"><path fill="#F4F6F9" fill-rule="evenodd" d="M15.996 4.079a11.921 11.921 0 1 1-4.97 22.755l-5.941 1.075a.857.857 0 0 1-.953-1.145l1.704-4.536a11.921 11.921 0 0 1 10.16-18.15m-.65 7.54a1.704 1.704 0 0 1 1.97 2.659 1.7 1.7 0 0 1-1.316.625 1.07 1.07 0 0 0-1.072 1.071v1.852a1.071 1.071 0 0 0 2.143 0v-.935a3.849 3.849 0 1 0-4.92-3.697 1.072 1.072 0 0 0 2.143 0 1.705 1.705 0 0 1 1.053-1.576zM16 23.527a1.535 1.535 0 0 1 .003-3.07h.004a1.534 1.534 0 0 1-.004 3.07z" clip-rule="evenodd"/></g><defs><clipPath id="a"><path fill="#fff" d="M4 4h24v24H4z"/></clipPath></defs></svg>
